X: 43082
T: Wind The Bobbin Up
R: barndance
M: 4/4
K: Gmajor
d4 d2 B2|d^cde d4|c2 A2 B2 G2|A2 F2 D4|
d4 d2 B2|d^cde d4|c2 A2 B2 G2|A2 d2 G4||
A4 D4|GABc d4|c2 A2 B2 G2|A2 F2 D4|
A4 D4|GABc d4|c2 A2 B2 G2|A2 d2 G4||

